X:1
T:Title
L:1/8
M:4/4
I:linebreak $
K:D
V:1 treble nm="Voice"
V:1
"Em" BGEF GFGA | BBgB fBeB | BGEF GBAG |"D" FDAD BDAF |"Em" EDEF GFGA | B2 gB fBec |"D" dcde dBAF | %7
 DFAF FE"Em" E2 ::"Em" Be e2 Be e2 | Beef edBc |"D" dA A2 fA A2 | dcde dBAF |"Em" E2 EF G2 GA | %13
 B2 gB fBec |"D" d2 de dBAF | DFAF FE"Em" E2 :| %16
